src/renderer/assets/icon/closeSearch-default-icon.svg

<?xml version="1.0" encoding="UTF-8"?>
<svg width="18px" height="18px" viewBox="0 0 18 18" version="1.1" xmlns="http://www.w3.org/2000/svg" xmlns:xlink="http://www.w3.org/1999/xlink">
    <!-- Generator: Sketch 52.2 (67145) - http://www.bohemiancoding.com/sketch -->
    <desc>Created with Sketch.</desc>
    <g id="页面1" stroke="none" stroke-width="1" fill="none" fill-rule="evenodd" opacity="0.16">
        <g id="菜单中打开URL" transform="translate(-687.000000, -12.000000)" fill="#FFFFFF">
            <g id="X" transform="translate(687.000000, 12.000000)">
                <path d="M9,18 C13.9705627,18 18,13.9705627 18,9 C18,4.02943725 13.9705627,0 9,0 C4.02943725,0 0,4.02943725 0,9 C0,13.9705627 4.02943725,18 9,18 Z M9.94992604,9.10606602 L12.6722871,11.8284271 C12.8675493,12.0236893 12.8675493,12.3402718 12.6722871,12.5355339 L12.4601551,12.7476659 C12.264893,12.9429281 11.9483105,12.9429281 11.7530483,12.7476659 L9.03068722,10.0253048 L6.30832611,12.7476659 C6.11306397,12.9429281 5.79648148,12.9429281 5.60121933,12.7476659 L5.3890873,12.5355339 C5.19382515,12.3402718 5.19382515,12.0236893 5.3890873,11.8284271 L8.1114484,9.10606602 L5.3890873,6.38370491 C5.19382515,6.18844276 5.19382515,5.87186027 5.3890873,5.67659813 L5.60121933,5.46446609 C5.79648148,5.26920395 6.11306397,5.26920395 6.30832611,5.46446609 L9.03068722,8.1868272 L11.7530483,5.46446609 C11.9483105,5.26920395 12.264893,5.26920395 12.4601551,5.46446609 L12.6722871,5.67659813 C12.8675493,5.87186027 12.8675493,6.18844276 12.6722871,6.38370491 L9.94992604,9.10606602 Z" id="形状结合"></path>
            </g>
        </g>
    </g>
</svg>

<svg width="18" height="18" xmlns="http://www.w3.org/2000/svg">
    <path d="M9 18A9 9 0 109 0a9 9 0 000 18zm.95-8.894l2.722 2.722a.5.5 0 010 .708l-.212.212a.5.5 0 01-.707 0l-2.722-2.723-2.723 2.723a.5.5 0 01-.707 0l-.212-.212a.5.5 0 010-.708l2.722-2.722L5.39 6.384a.5.5 0 010-.707l.212-.213a.5.5 0 01.707 0l2.723 2.723 2.722-2.723a.5.5 0 01.707 0l.212.213a.5.5 0 010 .707L9.95 9.106z" fill="#FFF" fill-rule="evenodd" opacity=".16"/>
</svg>
